X: 162
T: Violet and Drew
C: Bert Murray
R: reel
B: Bert Murray's "Bon Accord Collection" 1999 p.16
Z: 2011 John Chambers <jc:trillian.mit.edu>
M: C|
L: 1/8
K: F
uC2 |\
FAAG FCCF | DB,B,D CA,A,C | FAce fcAF | DGGF ECDE |
FAAG FCCF | DB,B,D CA,A,C | DFBd cAfd | cAGc AFF2 ||
A>A .c.c/.c/ f>c .c.c/.c/ | ABcB AFFE | DGGA BGAF | DGGF ECEG |
A>c .c.c/.c/ f>c .c.c/.c/ | defd cAAF | DFBd cAfd | cAGc AFF2 |]

%%sep 2 1 500

